src/assets/images/icn/pulldown2.svg

<svg width="10px" height="6px" viewBox="0 0 10 6" version="1.1" xmlns="http://www.w3.org/2000/svg" xmlns:xlink="http://www.w3.org/1999/xlink">
    <defs>
        <rect id="path-1" x="0" y="0" width="12" height="12"></rect>
        <path d="M9.62850481,4.00006063 C9.53202159,4.00266137 9.44121386,4.03907174 9.37452702,4.10278997 L5.99903321,7.19637115 L2.62353941,4.10278997 C2.55472422,4.0384216 2.46107874,4.00201122 2.36246718,4.00201122 C2.21490461,4.00201122 2.08224032,4.08458462 2.02690427,4.21007049 C1.97085883,4.3355562 2.00420234,4.47924709 2.10990835,4.5735239 L5.74221768,7.90247222 C5.88410477,8.03250926 6.11396166,8.03250926 6.25584874,7.90247222 L9.88815808,4.5735239 C9.99599226,4.47859695 10.0300452,4.33230531 9.97187155,4.20551915 C9.91440732,4.078733 9.77819572,3.99745989 9.62850481,4.00006063 Z" id="path-3"></path>
    </defs>
    <g id="Task" stroke="none" stroke-width="1" fill="none" fill-rule="evenodd">
        <g id="Task-List/Details-Status" transform="translate(-1041.000000, -167.000000)">
            <g id="Group-12" transform="translate(984.000000, 156.000000)">
                <g id="Group-5" transform="translate(62.000000, 14.000000) rotate(90.000000) translate(-62.000000, -14.000000) translate(56.000000, 8.000000)">
                    <mask id="mask-2" fill="white">
                        <use xlink:href="#path-1"></use>
                    </mask>
                    <g id="Mask"></g>
                    <mask id="mask-4" fill="white">
                        <use xlink:href="#path-3"></use>
                    </mask>
                    <use id="Mask" stroke="#FFFFFF" stroke-width="0.7832167" fill="#FFFFFF" fill-rule="nonzero" transform="translate(6.000000, 6.000000) rotate(-90.000000) translate(-6.000000, -6.000000) " xlink:href="#path-3"></use>
                </g>
            </g>
        </g>
    </g>
</svg>

<svg xmlns="http://www.w3.org/2000/svg" xmlns:xlink="http://www.w3.org/1999/xlink" width="10" height="6"><defs/><defs><path id="a" d="M0 0h12v12H0z"/><path id="b" d="M9.629 4a.382.382 0 00-.254.103L5.999 7.196 2.624 4.103a.382.382 0 00-.262-.101.364.364 0 00-.335.208.312.312 0 00.083.364l3.632 3.328c.142.13.372.13.514 0l3.632-3.328a.313.313 0 00.084-.368A.367.367 0 009.629 4z"/></defs><g fill="none" fill-rule="evenodd" transform="rotate(90 7 4)"><use fill="#FFF" fill-rule="nonzero" stroke="#FFF" stroke-width=".783" transform="rotate(-90 6 6)" xlink:href="#b"/></g></svg>
